X:1
T:Title
%%score { ( 1 4 ) | ( 2 3 ) }
L:1/8
M:6/8
K:Eb
V:1 treble nm="Grand Piano"
V:4 treble 
V:2 bass 
V:3 bass 
V:1
 z3 z2[Q:1/4=100] [GB] | [GB]2 G E>F[B,EG] | .[EGB]3 [EGB]2 [EGB] | %3
 [EAc]>[EBd][Ece] [EAc][EGB][B,EG] | [B,DF]3- [B,DF]2 [DAB] | [EGB]2 G E>F[B,EG] | %6
 .[EGB]3 [EGB]2 [Gc] | d>dd cFc |[M:5/8] [B,DB]-[B,DB]- [B,DB]3 |[M:1/8] B |[M:3/4] z d- d3 z | %11
 z e- e4 | [EAc][EAc] [EBd][Ee] [EBd][EAc] | B6 | z [GB]- [GB]3 z | z [ce]- [ce]3 z | %16
 B2 E [EG]2 F |[M:5/8] E-E- E3 |] %18
V:2
 z3 z2 [E,B,] | [E,B,]2 [E,B,E] [E,B,]->[E,A,B,]E, | z2[K:treble] c[K:bass] E,2 E, | %3
 A,>A,A, E,E,E, | B,,3- B,,2 B,, | E,2 [E,B,E] [E,B,]->[E,A,B,]E, | %6
 z2[K:treble] c[K:bass] E,2 [E,B,] | [F,B,F]>[F,B,F][F,B,F] [F,=A,E][F,A,E][F,A,E] | %8
[M:5/8] B,,-B,,- B,,3 |[M:1/8][K:treble] A |[M:3/4] z[K:bass] A- A3[K:treble] z | z G- G4[K:bass] | %12
 A,A, A,A, A,A, | E,A, G, F,2 F, | E,E, E,E, E,E, | A,A, A,A, A,[K:treble][A,EA] | %16
 [B,EG]2[K:bass] [B,,G,] [B,,B,]2 [B,,A,B,] |[M:5/8] [E,G,B,]-[E,G,B,]- [E,G,B,]3 |] %18
V:3
 x6 | z3 .G,3 | E,3[K:treble][K:bass] z3 | x6 | x6 | z3 .G,3 | E,3[K:treble][K:bass] z3 | x6 | %8
[M:5/8] x5 |[M:1/8][K:treble] x |[M:3/4] .A2[K:bass] B,,B,, B,,[K:treble]A | .G2 E,[K:bass]E, E,2 | %12
 x6 | x6 | x6 | x5[K:treble] x | x2[K:bass] x4 |[M:5/8] x5 |] %18
V:4
 x6 | x6 | x6 | x6 | x6 | x6 | x6 | x6 |[M:5/8] x5 |[M:1/8] x |[M:3/4] .B2 B,B, B,B | .B2 B,B, E2 | %12
 x6 | [EG][B,F] [B,E] [B,D]2 [B,DB] | [B,EG]B, EE E[EGe] | [EAc]E EE Ec | x6 |[M:5/8] x5 |] %18

